Hatter-kde/actions/24/labplot-xy-curve.svg

<svg xmlns="http://www.w3.org/2000/svg" viewBox="0 0 24 24">
  <defs id="defs3051">
    <style type="text/css" id="current-color-scheme">
      .ColorScheme-Text {
        color:#363636;
      }
      </style>
  </defs><g transform="translate(1,1)">
 <path 
     style="fill:currentColor;fill-opacity:1;stroke:none" 
     d="M 4 3 L 4 17 L 3 17 L 3 18 L 4 18 L 4 19 L 5 19 L 5 18 L 19 18 L 19 17 L 5 17 L 5 3 L 4 3 z M 6.4101562 3.7128906 L 5.5898438 4.2871094 L 11.0625 12.103516 L 6.7519531 14.566406 L 7.2480469 15.433594 L 11.638672 12.925781 L 12.685547 14.421875 L 18.841797 16.474609 L 19.158203 15.525391 L 13.314453 13.578125 L 12.509766 12.427734 L 14.367188 11.367188 L 18.433594 4.2480469 L 17.566406 3.7519531 L 13.632812 10.632812 L 11.933594 11.603516 L 6.4101562 3.7128906 z "
     class="ColorScheme-Text"
     />
</g></svg>

<?xml version="1.0" encoding="UTF-8"?>
<svg viewBox="0 0 24 24" xmlns="http://www.w3.org/2000/svg">
 <defs id="defs3051">
  <style id="current-color-scheme" type="text/css">.ColorScheme-Text {
        color:#363636;
      }</style>
 </defs>
 <g transform="translate(1,1)">
  <path class="ColorScheme-Text" d="m4 3v14h-1v1h1v1h1v-1h14v-1h-14v-14h-1zm2.4102 0.71289-0.82031 0.57422 5.4727 7.8164-4.3105 2.4629 0.49609 0.86719 4.3906-2.5078 1.0469 1.4961 6.1562 2.0527 0.31641-0.94922-5.8438-1.9473-0.80469-1.1504 1.8574-1.0605 4.0664-7.1191-0.86719-0.49609-3.9336 6.8809-1.6992 0.9707-5.5234-7.8906z" fill="currentColor"/>
 </g>
</svg>
